projects/plugins/jetpack/images/apps/triple-devices.svg

<svg height="246" viewBox="0 0 575 246" width="575" xmlns="http://www.w3.org/2000/svg" xmlns:xlink="http://www.w3.org/1999/xlink"><defs><path id="a" d="m48.6 191.39c-3.19 0-5.77-2.58-5.77-5.77s2.58-5.77 5.77-5.77c3.18 0 5.77 2.58 5.77 5.77s-2.59 5.77-5.77 5.77z"/><mask id="b" fill="#fff" height="11.54" width="11.54" x="0" y="0"><use xlink:href="#a"/></mask><circle id="c" cx="46.63" cy="6.25" r="3.37"/><mask id="d" fill="#fff" height="6.73" width="6.73" x="0" y="0"><use xlink:href="#c"/></mask><path id="e" d="m25.13 9.62c-.06 0-.13-.02-.18-.05l-5.06-3.01c-.11-.06-.18-.18-.18-.31s.07-.25.18-.31l5.06-3.01c.11-.06.24-.06.35 0 .11.07.18.19.18.31v6.01c0 .13-.07.25-.18.32-.05.03-.11.05-.17.05z"/><mask id="f" fill="#fff" height="6.73" width="5.77" x="0" y="0"><use xlink:href="#e"/></mask><rect id="g" height="6.73" rx="2" width="6.73" x="67.31" y="2.88"/><mask id="h" fill="#fff" height="6.73" width="6.73" x="0" y="0"><use xlink:href="#g"/></mask><path id="i" d="m0 0h271.81v183.51h-271.81z"/><mask id="j" fill="#fff"><use fill="#fff" fill-rule="evenodd" xlink:href="#i"/></mask></defs><g fill="none" fill-rule="evenodd"><g transform="translate(3.365385 65.711538)"><path d="m.96 3.37h91.35v162.5h-91.35z" fill="#fff"/><path d="m0 0h93.27v20.67h-93.27z" fill="#46799a"/><g fill="#969ca1"><path d="m12.5 30.288462h28.85v4.81h-28.85z"/><path d="m46.15 30.288462h9.62v4.81h-9.62z"/><path d="m60.58 30.288462h14.42v4.81h-14.42z"/><path d="m12.5 39.908462h14.42v4.81h-14.42z"/><path d="m31.73 39.908462h38.46v4.81h-38.46z"/><path d="m12.5 49.518462h19.23v4.81h-19.23z"/><path d="m36.54 49.518462h24.04v4.81h-24.04z"/><path d="m65.38 49.518462h9.62v4.81h-9.62z"/><path d="m12.5 59.138462h9.62v4.81h-9.62z"/><path d="m26.92 59.138462h24.04v4.81h-24.04z"/></g></g><path d="m5.288462 175.326923h89.42v54.33h-89.42z" fill="#b0b5b8"/><g fill="#fff"><rect height="9.62" rx="4" width="33.65" x="33.168462" y="213.786923"/><g><rect height="9.62" rx="4" width="9.62" x="21.153847" y="201.769231"/><rect height="9.62" rx="4" width="9.62" x="33.173847" y="201.769231"/><rect height="9.62" rx="4" width="9.62" x="45.193847" y="201.769231"/><rect height="9.62" rx="4" width="9.62" x="57.213847" y="201.769231"/><rect height="9.62" rx="4" width="9.62" x="69.233847" y="201.769231"/></g><g><rect height="9.62" rx="4" width="9.62" x="15.384616" y="189.75"/><rect height="9.62" rx="4" width="9.62" x="27.404616" y="189.75"/><rect height="9.62" rx="4" width="9.62" x="39.424616" y="189.75"/><rect height="9.62" rx="4" width="9.62" x="51.444616" y="189.75"/><rect height="9.62" rx="4" width="9.62" x="63.464616" y="189.75"/><rect height="9.62" rx="4" width="9.62" x="75.484616" y="189.75"/></g><g><rect height="9.62" rx="4" width="9.62" x="9.134616" y="177.730769"/><rect height="9.62" rx="4" width="9.62" x="21.154616" y="177.730769"/><rect height="9.62" rx="4" width="9.62" x="33.174616" y="177.730769"/><rect height="9.62" rx="4" width="9.62" x="45.194616" y="177.730769"/><rect height="9.62" rx="4" width="9.62" x="57.214616" y="177.730769"/><rect height="9.62" rx="4" width="9.62" x="69.234616" y="177.730769"/><rect height="9.62" rx="4" width="9.62" x="81.254616" y="177.730769"/></g></g><g transform="translate(.961538 50.807692)"><path d="m84.62 0h-71.16c-7.4 0-13.46 6.06-13.46 13.46v167.31c0 7.4 6.06 13.46 13.46 13.46h71.16c7.4 0 13.46-6.06 13.46-13.46v-167.31c0-7.4-6.06-13.46-13.46-13.46zm-78.85 18.27h86.54v156.73h-86.54z" fill="#f6f6f6"/><use mask="url(#b)" stroke="#4f748e" stroke-width="4" xlink:href="#a"/><path d="m41.35 6.73h15.38c.53 0 .96.43.96.96s-.43.96-.96.96h-15.38c-.53 0-.97-.43-.97-.96s.44-.96.97-.96z" fill="#4f748e"/></g><g transform="translate(477.884615 60.903846)"><path d="m.96 3.37h91.35v162.5h-91.35z" fill="#fff"/><path d="m0 0h93.27v20.67h-93.27z" fill="#46799a"/><g fill="#969ca1"><path d="m12.5 30.288462h28.85v4.81h-28.85z"/><path d="m46.15 30.288462h9.62v4.81h-9.62z"/><path d="m60.58 30.288462h14.42v4.81h-14.42z"/><path d="m12.5 39.908462h14.42v4.81h-14.42z"/><path d="m31.73 39.908462h38.46v4.81h-38.46z"/><path d="m12.5 49.518462h19.23v4.81h-19.23z"/><path d="m36.54 49.518462h24.04v4.81h-24.04z"/><path d="m65.38 49.518462h9.62v4.81h-9.62z"/><path d="m12.5 59.138462h9.62v4.81h-9.62z"/><path d="m26.92 59.138462h24.04v4.81h-24.04z"/></g></g><path d="m477.403846 163.788461h93.75v53.37h-93.75z" fill="#4f748e"/><rect fill="#fff" height="9.62" rx="4" width="33.65" x="507.693846" y="202.248461"/><g fill="#fff"><rect height="9.62" rx="4" width="9.62" x="495.673077" y="190.230769"/><rect height="9.62" rx="4" width="9.62" x="507.693077" y="190.230769"/><rect height="9.62" rx="4" width="9.62" x="519.713077" y="190.230769"/><rect height="9.62" rx="4" width="9.62" x="531.733077" y="190.230769"/><rect height="9.62" rx="4" width="9.62" x="543.753077" y="190.230769"/></g><g fill="#fff"><rect height="9.62" rx="4" width="9.62" x="489.903846" y="178.211538"/><rect height="9.62" rx="4" width="9.62" x="501.923846" y="178.211538"/><rect height="9.62" rx="4" width="9.62" x="513.943846" y="178.211538"/><rect height="9.62" rx="4" width="9.62" x="525.963846" y="178.211538"/><rect height="9.62" rx="4" width="9.62" x="537.983846" y="178.211538"/><rect height="9.62" rx="4" width="9.62" x="550.003846" y="178.211538"/></g><g fill="#fff"><rect height="9.62" rx="4" width="9.62" x="483.653846" y="166.192307"/><rect height="9.62" rx="4" width="9.62" x="495.673846" y="166.192307"/><rect height="9.62" rx="4" width="9.62" x="507.693846" y="166.192307"/><rect height="9.62" rx="4" width="9.62" x="519.713846" y="166.192307"/><rect height="9.62" rx="4" width="9.62" x="531.733846" y="166.192307"/><rect height="9.62" rx="4" width="9.62" x="543.753846" y="166.192307"/><rect height="9.62" rx="4" width="9.62" x="555.773846" y="166.192307"/></g><g transform="translate(477.884615 214.269231)"><path d="m0 0h93.27v15.38h-93.27z" fill="#3d4145"/><g stroke="#fff" stroke-width="4"><use mask="url(#d)" xlink:href="#c"/><use mask="url(#f)" xlink:href="#e"/><use mask="url(#h)" xlink:href="#g"/></g></g><g transform="translate(475 46)"><path d="m85.44 0h-71.85c-7.47 0-13.59 6.21-13.59 13.79v171.45c0 7.59 6.12 13.8 13.59 13.8h71.85c7.48 0 13.6-6.21 13.6-13.8v-171.45c0-7.58-6.12-13.79-13.6-13.79zm-81.59 18.27h91.34v162.5h-91.34zm30.71-11.06h29.92c1.03 0 1.87.65 1.87 1.44 0 .8-.84 1.45-1.87 1.45h-29.92c-1.03 0-1.87-.65-1.87-1.45 0-.79.84-1.44 1.87-1.44zm0 181.73h29.92c1.03 0 1.87.65 1.87 1.44 0 .8-.84 1.45-1.87 1.45h-29.92c-1.03 0-1.87-.65-1.87-1.45 0-.79.84-1.44 1.87-1.44z" fill="#f6f6f6"/><g fill="#4f748e"><circle cx="19.71" cy="8.65" r="1.44"/><g><path d="m99.038462 51.442308h.96v12.5h-.96z"/><path d="m99.038462 75.482308h.96v25h-.96z"/></g></g></g><g transform="translate(109)"><rect fill="#e3e2e3" height="232.36" rx="20" width="322.78" x="16.99"/><path d="m0 224.71v11.89c0 4.7 3.8 8.5 8.49 8.5h339.77c4.69 0 8.5-3.8 8.5-8.5v-11.89z" fill="#f6f6f6"/><path d="m139.31 224.71h78.15v4.25h-78.15z" fill="#969ca1"/><path d="m30.61 15h297.38v203.98h-297.38z" fill="#bbc9d5"/><g transform="translate(42.471042 32.708512)"><use fill="#bbc9d5" xlink:href="#i"/><rect fill="#f6f6f6" fill-opacity=".8" height="36.11" mask="url(#j)" rx="8" width="144.4" x="63.71" y="149.52"/><g fill="#969ca1"><rect height="16.99" mask="url(#j)" rx="4" width="21.24" x="72.2" y="158.02"/><path d="m151.62 155.9 10.62 21.24h-21.24z" mask="url(#j)"/><ellipse cx="186.87" cy="166.52" mask="url(#j)" rx="12.74" ry="12.74"/></g><g mask="url(#j)"><g transform="translate(104.478764 149.524628)"><ellipse cx="12.74" cy="16.99" fill="#6f93ad" rx="12.74" ry="12.74"/><path d="m17.92 25.9 3.15-9.1c.59-1.47.79-2.65.79-3.7 0-.38-.03-.73-.07-1.06.8 1.47 1.26 3.16 1.26 4.95 0 3.81-2.06 7.13-5.13 8.91zm-3.76-13.74c.62-.04 1.18-.1 1.18-.1.56-.07.49-.88-.06-.85 0 0-1.67.13-2.75.13-1.01 0-2.72-.13-2.72-.13-.55-.03-.62.82-.06.85 0 0 .52.06 1.08.1l1.6 4.4-2.25 6.77-3.76-11.17c.63-.04 1.18-.1 1.18-.1.56-.07.49-.88-.06-.85 0 0-1.67.13-2.75.13-.19 0-.42-.01-.66-.01 1.84-2.8 5.01-4.65 8.61-4.65 2.69 0 5.13 1.03 6.96 2.71-.04-.01-.08-.01-.13-.01-1.01 0-1.73.88-1.73 1.83 0 .85.49 1.57 1.01 2.42.39.68.85 1.57.85 2.84 0 .88-.26 1.99-.78 3.33l-1.03 3.44zm-1.42 15.14c-1.01 0-1.99-.15-2.91-.42l3.09-8.99 3.17 8.69c.02.05.05.09.07.14-1.07.38-2.22.58-3.42.58zm-10.31-10.31c0-1.49.32-2.91.89-4.2l4.92 13.48c-3.44-1.67-5.81-5.2-5.81-9.28zm10.31-11.47c-6.32 0-11.47 5.15-11.47 11.47 0 6.33 5.15 11.47 11.47 11.47s11.47-5.14 11.47-11.47c0-6.32-5.15-11.47-11.47-11.47z" fill="#fff"/></g></g></g><g transform="translate(82.393822 36.956371)"><rect fill="#f6f6f6" height="126.59" rx="8" width="191.97"/><path d="m191.97 0v104.99c0 4.42-3.58 8-8.01 8h-175.96c-4.42 0-8-3.58-8-8v-104.99z" fill="#fff" transform="translate(0 13.593148)"/><path d="m0 13.59h191.97v15.29h-191.97z" fill="#46799a"/><path d="m7.64 9.35c-1.4 0-2.54-1.15-2.54-2.55 0-1.41 1.14-2.55 2.54-2.55 1.41 0 2.55 1.14 2.55 2.55 0 1.4-1.14 2.55-2.55 2.55zm16.99 0c-1.4 0-2.55-1.15-2.55-2.55 0-1.41 1.15-2.55 2.55-2.55 1.41 0 2.55 1.14 2.55 2.55 0 1.4-1.14 2.55-2.55 2.55zm-8.49 0c-1.41 0-2.55-1.15-2.55-2.55 0-1.41 1.14-2.55 2.55-2.55s2.55 1.14 2.55 2.55c0 1.4-1.14 2.55-2.55 2.55z" fill="#4f748e"/></g><path d="m26.48 11h303.04v208.89h-303.04zm4.1 4.1h294.85v200.28h-294.85z" fill="#e3e2e3"/></g></g></svg>

<svg xmlns="http://www.w3.org/2000/svg" xmlns:xlink="http://www.w3.org/1999/xlink" width="575" height="246" viewBox="0 0 575 246" version="1.1"><defs><path d="M48.6 191.39C45.41 191.39 42.83 188.81 42.83 185.62 42.83 182.43 45.41 179.85 48.6 179.85 51.78 179.85 54.37 182.43 54.37 185.62 54.37 188.81 51.78 191.39 48.6 191.39L48.6 191.39Z" id="path-1"/><mask id="mask-2" maskContentUnits="userSpaceOnUse" maskUnits="objectBoundingBox" x="0" y="0" width="11.54" height="11.54" fill="white"><use xlink:href="#path-1"/></mask><circle id="path-3" cx="46.63" cy="6.25" r="3.37"/><mask id="mask-4" maskContentUnits="userSpaceOnUse" maskUnits="objectBoundingBox" x="0" y="0" width="6.73" height="6.73" fill="white"><use xlink:href="#path-3"/></mask><path d="M25.13 9.62C25.07 9.62 25 9.6 24.95 9.57L19.89 6.56C19.78 6.5 19.71 6.38 19.71 6.25 19.71 6.12 19.78 6 19.89 5.94L24.95 2.93C25.06 2.87 25.19 2.87 25.3 2.93 25.41 3 25.48 3.12 25.48 3.24L25.48 9.25C25.48 9.38 25.41 9.5 25.3 9.57 25.25 9.6 25.19 9.62 25.13 9.62L25.13 9.62Z" id="path-5"/><mask id="mask-6" maskContentUnits="userSpaceOnUse" maskUnits="objectBoundingBox" x="0" y="0" width="5.77" height="6.73" fill="white"><use xlink:href="#path-5"/></mask><rect id="path-7" x="67.31" y="2.88" width="6.73" height="6.73" rx="2"/><mask id="mask-8" maskContentUnits="userSpaceOnUse" maskUnits="objectBoundingBox" x="0" y="0" width="6.73" height="6.73" fill="white"><use xlink:href="#path-7"/></mask><rect id="path-9" x="0" y="0" width="271.81" height="183.51"/><path d="M191.97 0L191.97 104.99C191.97 109.41 188.39 112.99 183.96 112.99L8 112.99C3.58 112.99 0 109.41 0 104.99L0 0 191.97 0Z" id="path-11"/></defs><g id="At-a-Glance-(Full)" stroke="none" stroke-width="1" fill="none" fill-rule="evenodd"><g id="At-a-Glance---apps-landing-v2---big-intro" transform="translate(-346.000000, -2119.000000)"><g id="top-section" transform="translate(-191.000000, -67.000000)"><g id="devices" transform="translate(537.000000, 2186.000000)"><g id="triple-devices"><g id="white-iphone" transform="translate(0.000000, 50.000000)"><g id="Contents" transform="translate(3.365385, 15.711538)"><g id="Responsive-Calypso"><polygon id="BG" fill="#FFFFFF" points="0.96 3.37 92.31 3.37 92.31 165.87 0.96 165.87"/><rect id="masterbar" fill="#46799A" x="0" y="0" width="93.27" height="20.67"/><g id="Text" transform="translate(12.500000, 30.288462)" fill="#969CA1"><rect id="Rectangle-6" x="0" y="0" width="28.85" height="4.81"/><rect id="Rectangle-6-Copy" x="33.65" y="0" width="9.62" height="4.81"/><rect id="Rectangle-6-Copy" x="48.08" y="0" width="14.42" height="4.81"/><rect id="Rectangle-6-Copy" x="0" y="9.62" width="14.42" height="4.81"/><rect id="Rectangle-6-Copy" x="19.23" y="9.62" width="38.46" height="4.81"/><rect id="Rectangle-6-Copy" x="0" y="19.23" width="19.23" height="4.81"/><rect id="Rectangle-6-Copy" x="24.04" y="19.23" width="24.04" height="4.81"/><rect id="Rectangle-6-Copy" x="52.88" y="19.23" width="9.62" height="4.81"/><rect id="Rectangle-6-Copy" x="0" y="28.85" width="9.62" height="4.81"/><rect id="Rectangle-6-Copy" x="14.42" y="28.85" width="24.04" height="4.81"/></g></g><g id="Keyboard" transform="translate(1.923077, 109.615385)"><rect id="keyboard" fill="#B0B5B8" x="0" y="0" width="89.42" height="54.33"/><rect id="space" fill="#FFFFFF" x="27.88" y="38.46" width="33.65" height="9.62" rx="4"/><g id="bottom-row" transform="translate(15.865385, 26.442308)" fill="#FFFFFF"><rect id="Rectangle-17-Copy" x="0" y="0" width="9.62" height="9.62" rx="4"/><rect id="Rectangle-17-Copy" x="12.02" y="0" width="9.62" height="9.62" rx="4"/><rect id="Rectangle-17-Copy-2" x="24.04" y="0" width="9.62" height="9.62" rx="4"/><rect id="Rectangle-17-Copy-3" x="36.06" y="0" width="9.62" height="9.62" rx="4"/><rect id="Rectangle-17-Copy-4" x="48.08" y="0" width="9.62" height="9.62" rx="4"/></g><g id="middle-row" transform="translate(10.096154, 14.423077)" fill="#FFFFFF"><rect id="Rectangle-17-Copy" x="0" y="0" width="9.62" height="9.62" rx="4"/><rect id="Rectangle-17-Copy" x="12.02" y="0" width="9.62" height="9.62" rx="4"/><rect id="Rectangle-17-Copy-2" x="24.04" y="0" width="9.62" height="9.62" rx="4"/><rect id="Rectangle-17-Copy-3" x="36.06" y="0" width="9.62" height="9.62" rx="4"/><rect id="Rectangle-17-Copy-4" x="48.08" y="0" width="9.62" height="9.62" rx="4"/><rect id="Rectangle-17-Copy-5" x="60.1" y="0" width="9.62" height="9.62" rx="4"/></g><g id="top-row" transform="translate(3.846154, 2.403846)" fill="#FFFFFF"><rect id="Rectangle-17-Copy" x="0" y="0" width="9.62" height="9.62" rx="4"/><rect id="Rectangle-17-Copy" x="12.02" y="0" width="9.62" height="9.62" rx="4"/><rect id="Rectangle-17-Copy-2" x="24.04" y="0" width="9.62" height="9.62" rx="4"/><rect id="Rectangle-17-Copy-3" x="36.06" y="0" width="9.62" height="9.62" rx="4"/><rect id="Rectangle-17-Copy-4" x="48.08" y="0" width="9.62" height="9.62" rx="4"/><rect id="Rectangle-17-Copy-5" x="60.1" y="0" width="9.62" height="9.62" rx="4"/><rect id="Rectangle-17-Copy-5" x="72.12" y="0" width="9.62" height="9.62" rx="4"/></g></g></g><g id="iPhone" transform="translate(0.961538, 0.807692)"><path d="M84.62 0L13.46 0C6.06 0 0 6.06 0 13.46L0 180.77C0 188.17 6.06 194.23 13.46 194.23L84.62 194.23C92.02 194.23 98.08 188.17 98.08 180.77L98.08 13.46C98.08 6.06 92.02 0 84.62 0ZM5.77 18.27L92.31 18.27 92.31 175 5.77 175 5.77 18.27Z" id="Combined-Shape" fill="#F6F6F6"/><use id="home-button" stroke="#4F748E" mask="url(#mask-2)" stroke-width="4" xlink:href="#path-1"/><path d="M41.35 6.73L56.73 6.73C57.26 6.73 57.69 7.16 57.69 7.69 57.69 8.22 57.26 8.65 56.73 8.65L41.35 8.65C40.82 8.65 40.38 8.22 40.38 7.69 40.38 7.16 40.82 6.73 41.35 6.73L41.35 6.73Z" id="mic" fill="#4F748E"/></g></g><g id="white-Nexus-5X" transform="translate(475.000000, 46.000000)"><g id="Contents" transform="translate(2.403846, 14.903846)"><g id="Responsive-Calypso" transform="translate(0.480769, 0.000000)"><polygon id="BG" fill="#FFFFFF" points="0.96 3.37 92.31 3.37 92.31 165.87 0.96 165.87"/><rect id="masterbar" fill="#46799A" x="0" y="0" width="93.27" height="20.67"/><g id="Text" transform="translate(12.500000, 30.288462)" fill="#969CA1"><rect id="Rectangle-6" x="0" y="0" width="28.85" height="4.81"/><rect id="Rectangle-6-Copy" x="33.65" y="0" width="9.62" height="4.81"/><rect id="Rectangle-6-Copy" x="48.08" y="0" width="14.42" height="4.81"/><rect id="Rectangle-6-Copy" x="0" y="9.62" width="14.42" height="4.81"/><rect id="Rectangle-6-Copy" x="19.23" y="9.62" width="38.46" height="4.81"/><rect id="Rectangle-6-Copy" x="0" y="19.23" width="19.23" height="4.81"/><rect id="Rectangle-6-Copy" x="24.04" y="19.23" width="24.04" height="4.81"/><rect id="Rectangle-6-Copy" x="52.88" y="19.23" width="9.62" height="4.81"/><rect id="Rectangle-6-Copy" x="0" y="28.85" width="9.62" height="4.81"/><rect id="Rectangle-6-Copy" x="14.42" y="28.85" width="24.04" height="4.81"/></g></g><g id="Keyboard" transform="translate(0.000000, 102.884615)"><rect id="keyboard" fill="#4F748E" x="0" y="0" width="93.75" height="53.37"/><rect id="space" fill="#FFFFFF" x="30.29" y="38.46" width="33.65" height="9.62" rx="4"/><g id="bottom-row" transform="translate(18.269231, 26.442308)" fill="#FFFFFF"><rect id="Rectangle-17-Copy" x="0" y="0" width="9.62" height="9.62" rx="4"/><rect id="Rectangle-17-Copy" x="12.02" y="0" width="9.62" height="9.62" rx="4"/><rect id="Rectangle-17-Copy-2" x="24.04" y="0" width="9.62" height="9.62" rx="4"/><rect id="Rectangle-17-Copy-3" x="36.06" y="0" width="9.62" height="9.62" rx="4"/><rect id="Rectangle-17-Copy-4" x="48.08" y="0" width="9.62" height="9.62" rx="4"/></g><g id="middle-row" transform="translate(12.500000, 14.423077)" fill="#FFFFFF"><rect id="Rectangle-17-Copy" x="0" y="0" width="9.62" height="9.62" rx="4"/><rect id="Rectangle-17-Copy" x="12.02" y="0" width="9.62" height="9.62" rx="4"/><rect id="Rectangle-17-Copy-2" x="24.04" y="0" width="9.62" height="9.62" rx="4"/><rect id="Rectangle-17-Copy-3" x="36.06" y="0" width="9.62" height="9.62" rx="4"/><rect id="Rectangle-17-Copy-4" x="48.08" y="0" width="9.62" height="9.62" rx="4"/><rect id="Rectangle-17-Copy-5" x="60.1" y="0" width="9.62" height="9.62" rx="4"/></g><g id="top-row" transform="translate(6.250000, 2.403846)" fill="#FFFFFF"><rect id="Rectangle-17-Copy" x="0" y="0" width="9.62" height="9.62" rx="4"/><rect id="Rectangle-17-Copy" x="12.02" y="0" width="9.62" height="9.62" rx="4"/><rect id="Rectangle-17-Copy-2" x="24.04" y="0" width="9.62" height="9.62" rx="4"/><rect id="Rectangle-17-Copy-3" x="36.06" y="0" width="9.62" height="9.62" rx="4"/><rect id="Rectangle-17-Copy-4" x="48.08" y="0" width="9.62" height="9.62" rx="4"/><rect id="Rectangle-17-Copy-5" x="60.1" y="0" width="9.62" height="9.62" rx="4"/><rect id="Rectangle-17-Copy-5" x="72.12" y="0" width="9.62" height="9.62" rx="4"/></g></g><g id="Systembar" transform="translate(0.480769, 153.365385)"><rect fill="#3D4145" x="0" y="0" width="93.27" height="15.38"/><use id="home" stroke="#FFFFFF" mask="url(#mask-4)" stroke-width="4" xlink:href="#path-3"/><use id="back" stroke="#FFFFFF" mask="url(#mask-6)" stroke-width="4" xlink:href="#path-5"/><use id="multitask" stroke="#FFFFFF" mask="url(#mask-8)" stroke-width="4" xlink:href="#path-7"/></g></g><g id="Phone"><path d="M85.44 0L13.59 0C6.12 0 0 6.21 0 13.79L0 185.24C0 192.83 6.12 199.04 13.59 199.04L85.44 199.04C92.92 199.04 99.04 192.83 99.04 185.24L99.04 13.79C99.04 6.21 92.92 0 85.44 0ZM3.85 18.27L95.19 18.27 95.19 180.77 3.85 180.77 3.85 18.27ZM34.56 7.21L64.48 7.21C65.51 7.21 66.35 7.86 66.35 8.65 66.35 9.45 65.51 10.1 64.48 10.1L34.56 10.1C33.53 10.1 32.69 9.45 32.69 8.65 32.69 7.86 33.53 7.21 34.56 7.21L34.56 7.21ZM34.56 188.94L64.48 188.94C65.51 188.94 66.35 189.59 66.35 190.38 66.35 191.18 65.51 191.83 64.48 191.83L34.56 191.83C33.53 191.83 32.69 191.18 32.69 190.38 32.69 189.59 33.53 188.94 34.56 188.94L34.56 188.94Z" id="Combined-Shape" fill="#F6F6F6"/><circle id="camera" fill="#4F748E" cx="19.71" cy="8.65" r="1.44"/><g id="Buttons" transform="translate(99.038462, 51.442308)" fill="#4F748E"><rect id="Rectangle-92" x="0" y="0" width="0.96" height="12.5"/><rect id="Rectangle-92" x="0" y="24.04" width="0.96" height="25"/></g></g></g><g id="MacBook" transform="translate(109.000000, 0.000000)"><rect id="top" fill="#E3E2E3" x="16.99" y="0" width="322.78" height="232.36" rx="20"/><path d="M0 224.71L0 236.6C0 241.3 3.8 245.1 8.49 245.1L348.26 245.1C352.95 245.1 356.76 241.3 356.76 236.6L356.76 224.71 0 224.71 0 224.71Z" id="bottom" fill="#F6F6F6"/><rect id="groove" fill="#969CA1" x="139.31" y="224.71" width="78.15" height="4.25"/><rect id="screen" fill="#BBC9D5" x="30.61" y="15" width="297.38" height="203.98"/><g id="OSX" transform="translate(42.471042, 32.708512)"><g id="OSX-Dock"><mask id="mask-10" fill="white"><use xlink:href="#path-9"/></mask><use id="Mask" fill="#BBC9D5" xlink:href="#path-9"/><rect id="dock" fill-opacity="0.8" fill="#F6F6F6" mask="url(#mask-10)" x="63.71" y="149.52" width="144.4" height="36.11" rx="8"/><rect id="finder" fill="#969CA1" mask="url(#mask-10)" x="72.2" y="158.02" width="21.24" height="16.99" rx="4"/><polygon id="Triangle-1" fill="#969CA1" mask="url(#mask-10)" points="151.62 155.9 162.24 177.14 141 177.14"/><ellipse id="Oval-1" fill="#969CA1" mask="url(#mask-10)" cx="186.87" cy="166.52" rx="12.74" ry="12.74"/><g id="WordPress" mask="url(#mask-10)"><g transform="translate(104.478764, 149.524628)"><ellipse id="circle" fill="#6F93AD" cx="12.74" cy="16.99" rx="12.74" ry="12.74"/><path d="M17.92 25.9L21.07 16.8C21.66 15.33 21.86 14.15 21.86 13.1 21.86 12.72 21.83 12.37 21.79 12.04 22.59 13.51 23.05 15.2 23.05 16.99 23.05 20.8 20.99 24.12 17.92 25.9L17.92 25.9ZM14.16 12.16C14.78 12.12 15.34 12.06 15.34 12.06 15.9 11.99 15.83 11.18 15.28 11.21 15.28 11.21 13.61 11.34 12.53 11.34 11.52 11.34 9.81 11.21 9.81 11.21 9.26 11.18 9.19 12.03 9.75 12.06 9.75 12.06 10.27 12.12 10.83 12.16L12.43 16.56 10.18 23.33 6.42 12.16C7.05 12.12 7.6 12.06 7.6 12.06 8.16 11.99 8.09 11.18 7.54 11.21 7.54 11.21 5.87 11.34 4.79 11.34 4.6 11.34 4.37 11.33 4.13 11.33 5.97 8.53 9.14 6.68 12.74 6.68 15.43 6.68 17.87 7.71 19.7 9.39 19.66 9.38 19.62 9.38 19.57 9.38 18.56 9.38 17.84 10.26 17.84 11.21 17.84 12.06 18.33 12.78 18.85 13.63 19.24 14.31 19.7 15.2 19.7 16.47 19.7 17.35 19.44 18.46 18.92 19.8L17.89 23.24 14.16 12.16ZM12.74 27.3C11.73 27.3 10.75 27.15 9.83 26.88L12.92 17.89 16.09 26.58C16.11 26.63 16.14 26.67 16.16 26.72 15.09 27.1 13.94 27.3 12.74 27.3L12.74 27.3ZM2.43 16.99C2.43 15.5 2.75 14.08 3.32 12.79L8.24 26.27C4.8 24.6 2.43 21.07 2.43 16.99L2.43 16.99ZM12.74 5.52C6.42 5.52 1.27 10.67 1.27 16.99 1.27 23.32 6.42 28.46 12.74 28.46 19.06 28.46 24.21 23.32 24.21 16.99 24.21 10.67 19.06 5.52 12.74 5.52L12.74 5.52Z" id="logomark" fill="#FFFFFF"/></g></g></g><g id="App,-Linux/OSX" transform="translate(39.922780, 4.247859)"><rect id="Browser" fill="#F6F6F6" x="0" y="0" width="191.97" height="126.59" rx="8"/><g id="Contents" transform="translate(0.000000, 13.593148)"><mask id="mask-12" fill="white"><use xlink:href="#path-11"/></mask><use id="Mask" fill="#FFFFFF" xlink:href="#path-11"/></g><rect id="masterbar" fill="#46799A" x="0" y="13.59" width="191.97" height="15.29"/><path d="M7.64 9.35C6.24 9.35 5.1 8.2 5.1 6.8 5.1 5.39 6.24 4.25 7.64 4.25 9.05 4.25 10.19 5.39 10.19 6.8 10.19 8.2 9.05 9.35 7.64 9.35ZM24.63 9.35C23.23 9.35 22.08 8.2 22.08 6.8 22.08 5.39 23.23 4.25 24.63 4.25 26.04 4.25 27.18 5.39 27.18 6.8 27.18 8.2 26.04 9.35 24.63 9.35ZM16.14 9.35C14.73 9.35 13.59 8.2 13.59 6.8 13.59 5.39 14.73 4.25 16.14 4.25 17.55 4.25 18.69 5.39 18.69 6.8 18.69 8.2 17.55 9.35 16.14 9.35Z" id="OSX/Linux" fill="#4F748E"/></g></g><path d="M26.48 11L329.52 11 329.52 219.89 26.48 219.89 26.48 11ZM30.58 15.1L325.43 15.1 325.43 215.38 30.58 215.38 30.58 15.1Z" id="Edge-overlay" fill="#E3E2E3"/></g></g></g></g></g></g></svg>
